iu/g2a.svg

<svg viewBox="0 0 100 100" fill="none" xmlns="http://www.w3.org/2000/svg" height="1em" width="1em">
  <rect width="100" height="100" fill="#0E0E0E"/>
  <path d="M44.3921 47.6749C42.3634 47.675 40.4179 48.4809 38.9834 49.9155C37.5489 51.35 36.743 53.2956 36.743 55.3243V63.9304H58.2085L61.2532 58.193H42.7463V55.8929C42.7463 55.2346 43.0078 54.6032 43.4733 54.1377C43.9388 53.6721 44.5702 53.4105 45.2286 53.4105L57.3013 53.4095C59.457 53.4095 61.5243 52.5532 63.0485 51.0289C64.5728 49.5047 65.4291 47.4374 65.4291 45.2818C65.4291 43.1261 64.5728 41.0588 63.0485 39.5346C61.5243 38.0103 59.457 37.154 57.3013 37.154L42.9343 37.1566C42.1809 37.1566 41.4348 37.305 40.7387 37.5933C40.0426 37.8816 39.4102 38.3042 38.8774 38.837C38.3446 39.3697 37.922 40.0022 37.6337 40.6983C37.3454 41.3944 37.197 42.1404 37.197 42.8938L56.883 42.8933C57.5128 42.8881 58.1198 43.1281 58.5758 43.5624C59.0318 43.9968 59.301 44.5915 59.3265 45.2207C59.3352 45.5395 59.28 45.8569 59.1641 46.154C59.0481 46.4512 58.8739 46.7221 58.6516 46.9508C58.4293 47.1795 58.1634 47.3613 57.8697 47.4856C57.576 47.6099 57.2603 47.6741 56.9414 47.6744L44.3921 47.6749Z" fill="#EBEBEB"/>
  <path d="M16.7392 58.1785C14.7139 58.1785 12.7716 57.374 11.3395 55.9419C9.90738 54.5098 9.10284 52.5675 9.10284 50.5422C9.10284 48.5169 9.90738 46.5746 11.3395 45.1425C12.7716 43.7104 14.7139 42.9058 16.7392 42.9058L32.2406 42.8938V37.1566L16.3743 37.1678C12.8272 37.1678 9.42543 38.5769 6.91726 41.0851C4.40908 43.5933 3 46.9951 3 50.5422C3 54.0893 4.40908 57.4911 6.91726 59.9993C9.42543 62.5075 12.8272 63.9165 16.3743 63.9165L32.2406 63.9299V47.6743L15.0285 47.6748V53.4122L26.2374 53.412V58.1928L16.7392 58.1785Z" fill="#F05F00"/>
  <path d="M80.307 60.6743H79.3834C78.9517 60.6743 78.5376 60.8458 78.2324 61.151C77.9271 61.4563 77.7556 61.8704 77.7556 62.3021C77.7556 62.7338 77.9271 63.1479 78.2324 63.4531C78.5376 63.7584 78.9517 63.9299 79.3834 63.9299H80.307C80.7387 63.9299 81.1528 63.7584 81.4581 63.4531C81.7633 63.1479 81.9348 62.7338 81.9348 62.3021C81.9348 61.8704 81.7633 61.4563 81.4581 61.151C81.1528 60.8458 80.7387 60.6743 80.307 60.6743V60.6743ZM80.2738 63.2494H79.4166C79.1654 63.2494 78.9244 63.1496 78.7468 62.972C78.5692 62.7943 78.4694 62.5534 78.4694 62.3022C78.4694 62.051 78.5692 61.8101 78.7468 61.6324C78.9244 61.4548 79.1654 61.355 79.4166 61.355H80.2738C80.5251 61.355 80.766 61.4548 80.9436 61.6324C81.1213 61.8101 81.2211 62.051 81.2211 62.3022C81.2211 62.5534 81.1213 62.7943 80.9436 62.972C80.766 63.1496 80.5251 63.2494 80.2738 63.2494V63.2494Z" fill="#0084C1"/>
  <path d="M73.8155 62.302C73.8159 62.7336 73.9876 63.1474 74.2928 63.4526C74.5979 63.7578 75.0117 63.9294 75.4433 63.9299H77.3043V63.2494H75.4765C75.2253 63.2494 74.9844 63.1496 74.8068 62.972C74.6291 62.7943 74.5293 62.5534 74.5293 62.3022C74.5293 62.051 74.6291 61.8101 74.8068 61.6324C74.9844 61.4548 75.2253 61.355 75.4765 61.355H77.3043V60.6743H75.4433C75.0117 60.6747 74.5979 60.8464 74.2928 61.1516C73.9876 61.4567 73.816 61.8705 73.8155 62.302V62.302Z" fill="#0084C1"/>
  <path d="M85.5383 60.6743L84.8285 62.6243L84.1187 60.6743H83.2199L82.0131 63.9294H82.7791L83.6693 61.4294L84.4623 63.6085H85.1948L85.9878 61.4294L86.878 63.9294H87.6429L86.4372 60.6743H85.5383Z" fill="#0084C1"/>
  <path d="M72.976 63.93C73.2216 63.93 73.4207 63.7309 73.4207 63.4853C73.4207 63.2397 73.2216 63.0406 72.976 63.0406C72.7304 63.0406 72.5313 63.2397 72.5313 63.4853C72.5313 63.7309 72.7304 63.93 72.976 63.93Z" fill="#0084C1"/>
  <path d="M85.0757 40.2413C84.6336 39.372 84.0048 38.6111 83.2344 38.0131C82.3322 37.3425 81.2348 36.9867 80.1107 37.0004C79.0124 36.9867 77.9415 37.3435 77.0708 38.0131C76.3004 38.6111 75.6716 39.372 75.2295 40.2413C70.215 49.7939 62.7063 63.9304 62.7063 63.9304H69.5585L80.1107 43.7139L85.0698 53.2149H77.4346L80.1264 58.355H87.7528L90.663 63.9304H97.5151C97.5151 63.9304 90.0901 49.7939 85.0757 40.2413Z" fill="#0084C1"/>
</svg>

<svg viewBox="0 0 100 100" fill="none" xmlns="http://www.w3.org/2000/svg" height="1em" width="1em">
  <path fill="#0E0E0E" d="M0 0h100v100H0z"/>
  <path d="M44.392 47.675a7.65 7.65 0 0 0-7.649 7.65v8.605h21.465l3.045-5.737H42.746v-2.3a2.482 2.482 0 0 1 2.483-2.483H57.3a8.127 8.127 0 1 0 0-16.256l-14.367.003a5.738 5.738 0 0 0-5.737 5.737h19.686a2.425 2.425 0 0 1 2.444 2.327 2.389 2.389 0 0 1-2.386 2.453H44.392Z" fill="#EBEBEB"/>
  <path d="M16.74 58.178a7.636 7.636 0 1 1 0-15.272l15.5-.012v-5.737l-15.866.01a13.374 13.374 0 0 0 0 26.75l15.867.013V47.674H15.029v5.738h11.208v4.78l-9.498-.014Z" fill="#F05F00"/>
  <path d="M80.307 60.674h-.924a1.628 1.628 0 1 0 0 3.256h.924a1.628 1.628 0 0 0 0-3.256Zm-.033 2.575h-.857a.947.947 0 0 1 0-1.894h.857a.947.947 0 1 1 0 1.894Zm-6.458-.947a1.63 1.63 0 0 0 1.627 1.628h1.861v-.68h-1.828a.947.947 0 0 1 0-1.895h1.828v-.68h-1.86a1.629 1.629 0 0 0-1.629 1.627Zm11.722-1.628-.71 1.95-.71-1.95h-.898l-1.207 3.255h.766l.89-2.5.793 2.18h.733l.793-2.18.89 2.5h.765l-1.206-3.255h-.899ZM72.976 63.93a.445.445 0 1 0 0-.89.445.445 0 0 0 0 .89Z" fill="#0084C1"/>
  <path d="M85.076 40.241a6.62 6.62 0 0 0-1.842-2.228A5.14 5.14 0 0 0 80.111 37a4.887 4.887 0 0 0-3.04 1.013 6.62 6.62 0 0 0-1.841 2.228c-5.015 9.553-12.524 23.69-12.524 23.69h6.852l10.553-20.217 4.959 9.5h-7.635l2.691 5.141h7.627l2.91 5.575h6.852s-7.425-14.136-12.44-23.689Z" fill="#0084C1"/>
</svg>
